**kern	**kern	**kern
*staff3	*staff2	*staff1
*tb32	*tb32	*tb32
*clefF4	*clefF4	*clefG2
*k[f#c#g#]	*k[f#c#g#]	*k[f#c#g#]
*M2/4	*M2/4	*M2/4
*A:	*A:	*A:
8r	8r	8e'J
=29	=29	=29
4r	2r	8a'L
.	.	8b'J
8A 8c# 8e	.	8cc#'L
8r	.	8dd'J
=30	=30	=30
8G# 8B 8e	2r	(8.eeL
8r	.	.
.	.	16ff#Jk)
8G# 8B 8e	.	8ee'L
8r	.	8dd'J
=31	=31	=31
8A 8c# 8e	2r	8cc#'L
8r	.	8b'J
8A 8c# 8e	.	8cc#'L
8r	.	8dd'J
=32	=32	=32
8G# 8B 8e	2r	(8.eeL
8r	.	.
.	.	16ff#Jk)
8G# 8B 8e	.	8ee'L
8r	.	8dd'J
=33	=33	=33
8A 8e	2r	8cc#'L
8r	.	8cc#'J
8E	.	(16bLL
.	.	16a
8r	.	16b
.	.	16cc#JJ)
=34	=34	=34
8AAL 8A	2r	8aL
8DJ	.	(16aaL
.	.	16ff#JJ
8C#L	.	16ff#LL
.	.	16ee
8DJ 8A	.	16ff#
.	.	16ddJJ)
=35	=35	=35
8E 8A	2r	8cc#'L
8r	.	8cc#'J
8E 8G#	.	(16bLL
.	.	16a
8r	.	16b
.	.	16cc#JJ)
=36	=36	=36
8AAL 8A	2r	8aL
8DJ	.	(16aaL
.	.	16ff#JJ
8C#L	.	16ff#LL
.	.	16ee
8DJ 8A	.	16ff#
.	.	16ddJJ)
=37	=37	=37
8E 8A	2r	8cc#'L
8r	.	8cc#'J
8E 8G#	.	(16bLL
.	.	16a
8r	.	16b
.	.	16cc#JJ)
=	=	=
8r	4.r	4a
8AL	.	.
8AAJ	.	4r
*||	*||	*||
*-	*-	*-
